X: 267
T: the Old Beggarman
B: O'Neill's 267
N: "With spirit"
N: "Collected by J.O'Neill"
Z: 1997 by John Chambers <jc@trillian.mit.edu>
M: 6/8
L: 1/8
K:D
d \
| A>BA A<AB | (=c>d)c c2e | (dc).B (AB).c | d2e f2d |
| A>BA Adc | BcB Be.d | cBA ABc | ded d2||
|| (d/e/) \
| f2f (fga) | (agf) (e2f/g/) | a2a gfe | dcB (A2d/e/) |
| (fgf) (fga) | agf efg | fed cBc | ded d2 ||


